X: 72
T: No_16_First_Song.krn
N: Derived from No_16_First_Song.krn
%%abc-version 2.0
%%abcx-abcm2ps-target-version 5.9.1 (29 Sep 2008)
%%abc-creator hum2abc beta
%%abcx-conversion-date 2019/03/15 08:29:13
%%humdrum-veritas 3130720195
%%humdrum-veritas-data 2773318839
%%linebreak <none>
%%barnumbers 0
L: 1/8
M: 2/4
%%staves {1 2}
V: 1 clef=bass
V: 2 clef=bass
K: F
[V:1] CC [I:setbarnb 1]| 
[V:2] z2 | 
[V:1] C2C3/A,/ | 
[V:2] G,,G,, G,,G,, | 
[V:1] C3C ||  
[V:2] G,,G,, G,,G,, ||  
[V:1] [M:3/4]C3CC2 | 
[V:2] [M:3/4]z6 | 
[V:1] C3CC2 | 
[V:2] z6 | 
[V:1] A,3A, A,F, | 
[V:2] z6 | 
[V:1] F,3F,F,2- ||  
[V:2] z6 ||  
[V:1] [M:2/4]F,2CC ||  
[V:2] [M:2/4]z4 ||  
[V:1] [M:3/4]A,2A,3/F,/ A,3/A,/ | 
[V:2] [M:3/4]z6 | 
[V:1] A,3A,A,2 ||  
[V:2] z6 ||  
[V:1] [M:2/4]A,4 ]|:  
[V:2] [M:2/4]z4 ]|:  
[V:1] [M:3/4]A,2A,2A,F, | 
[V:2] [M:3/4]z6 | 
[V:1] F,3F,F,2- ||  
[V:2] z6 ||  
[V:1] [M:2/4]F,2A,A, | 
[V:2] [M:2/4]z4 | 
[V:1] F,2F,3/D,/ | 
[V:2] z4 | 
[V:1] F,3F, | 
[V:2] z4 | 
[V:1] F,4 | 
[V:2] z4 | 
[V:1] F,3F, | 
[V:2] z4 | 
[V:1] D,2D,2 ||  
[V:2] z4 ||  
[V:1] [M:3/4]C,3C,C,2- ||  
[V:2] [M:3/4]z6 ||  
[V:1] [M:2/4]C,2C,C, | 
[V:2] [M:2/4]z4 | 
[V:1] C,2C,A,, | 
[V:2] z4 | 
[V:1] C,2C,2 | 
[V:2] z4 | 
[V:1] C,3C, | 
[V:2] z4 | 
[V:1] A,,2A,,2 | 
[V:2] z4 | 
[V:1] F,,3F,, | 
[V:2] z4 | 
[V:1] F,,2CC | 
[V:2] z4 | 
[V:1] C2C3/A,/ | 
[V:2] z4 | 
[V:1] C3C ||  
[V:2] z4 ||  
[V:1] [M:3/4]C3CC2 | 
[V:2] [M:3/4]z6 | 
[V:1] C3CC2 | 
[V:2] z6 | 
[V:1] A,2A,2A,F, | 
[V:2] z6 | 
[V:1] F,3F,F,2- ||  
[V:2] z6 ||  
[V:1] [M:2/4]F,2CC ||  
[V:2] [M:2/4]z4 ||  
[V:1] [M:3/4]A,2A,3/F,/ A,3/A,/ | 
[V:2] [M:3/4]z6 | 
[V:1] A,3A,A,2 ||  
[V:2] z6 ||  
[V:1] [M:2/4]A,4 :|]  
[V:2] [M:2/4]z4 :|]  



